X:26
T:Seawatcher
R:jig
C:Paul S. Cranford
O:Cape Breton Island
S:http://www.cranfordpub.com
D:currently unrecorded
B:currently unpublished in book form
Z:psc, (re-formatted,updated 9/17/04)
H:                                                     copyrights Cranford Publications, SOCAN
L:1/8
Q:300
M:6/8
K:Bb
B,BD BFd|edc B2 F|dfg fdB|ede cAF|
B,BD BFd|edc Bcd|ecA F=EF|1EDC B,2 z:|2ecA B2||
|:f|bBa gba|gfe dcB|eFc AcF|AB=B cfa|
[1bBa gba|gfe dcB|eFc AcF|ecA B2:|
[2bBa gBf|dfg fdB|ecA F=EF|EDC B,2 z|]
